icons/svg/icons8/user.svg

<svg width="26" height="26" viewBox="0 0 26 26" fill="none" xmlns="http://www.w3.org/2000/svg">
<path d="M16.5628 15.9C16.4038 15.848 15.3988 15.395 16.0268 13.486H16.0178C17.6548 11.8 18.9058 9.08701 18.9058 6.41601C18.9058 2.30901 16.1748 0.156006 13.0008 0.156006C9.82479 0.156006 7.10879 2.30801 7.10879 6.41601C7.10879 9.09801 8.35279 11.822 9.99979 13.504C10.6418 15.188 9.49379 15.813 9.25379 15.9C5.92979 17.103 2.02979 19.294 2.02979 21.457C2.02979 22.041 2.02979 21.687 2.02979 22.268C2.02979 25.215 7.74378 25.885 13.0318 25.885C18.3278 25.885 23.9698 25.215 23.9698 22.268C23.9698 21.688 23.9698 22.041 23.9698 21.457C23.9698 19.229 20.0508 17.055 16.5628 15.9Z" fill="#333333"/>
</svg>

<?xml version="1.0" encoding="utf-8"?>
<!-- Generator: Adobe Illustrator 15.0.0, SVG Export Plug-In . SVG Version: 6.00 Build 0)  -->
<!DOCTYPE svg PUBLIC "-//W3C//DTD SVG 1.1//EN" "http://www.w3.org/Graphics/SVG/1.1/DTD/svg11.dtd">
<svg version="1.1" id="Layer_1" xmlns="http://www.w3.org/2000/svg" xmlns:xlink="http://www.w3.org/1999/xlink" x="0px" y="0px"
	 width="26px" height="26px" viewBox="0 0 26 26" enable-background="new 0 0 26 26" xml:space="preserve">
<rect fill="none" width="26" height="26"/>
<g>
	<path fill="#333333" d="M16.563,15.9c-0.159-0.052-1.164-0.505-0.536-2.414h-0.009c1.637-1.686,2.888-4.399,2.888-7.07
		c0-4.107-2.731-6.26-5.905-6.26c-3.176,0-5.892,2.152-5.892,6.26c0,2.682,1.244,5.406,2.891,7.088
		c0.642,1.684-0.506,2.309-0.746,2.396C5.93,17.103,2.03,19.294,2.03,21.457c0,0.584,0,0.23,0,0.811
		c0,2.947,5.714,3.617,11.002,3.617c5.296,0,10.938-0.67,10.938-3.617c0-0.58,0-0.227,0-0.811
		C23.97,19.229,20.051,17.055,16.563,15.9z"/>
</g>
</svg>
